!!!COM: Scriabin, Alexander
!!!OTL@@FR: Poème en do majeur
!!!OTL@@EN: Poem in C Major
!!!OPR@@FR: 3 Morceaux
!!!OPR@@EN: 3 Pieces
!!!OPS: 52
!!!ONM: 1
!!!ODT: 1907
!!!AGN: Poem
**kern	**kern	**dynam
*staff2	*staff1	*staff1/2
*Ipiano	*Ipiano	*
*clefF4	*clefG2	*
*k[]	*k[]	*
*C:	*C:	*
*M3/8	*M3/8	*
=1	=1	=1
*^	*	*
8rC	4.B-X	16r	pp
.	.	[16f [16a	.
4C	.	16fLL] 16a]	.
.	.	[16c#XJJ	.
.	.	24c#LL]	<
.	.	24.d	(
.	.	48fJJk 48a	(
*v	*v	*	*
=2	=2	=2
*M3/4	*M3/4	*
12B-XL	2f-X 2a-X 2ccn	[
12F-X	.	.
12GG-XJ	.	.
12F-L	.	.
12B-	.	.
*clefG2	*	*
12a-XJ	.	.
4ff-X	6ccc	.
.	12aa-X	.
=3	=3	=3
*M2/4	*M2/4	*
6a-X	6dd 6gg-X 6ccc	.
12d	12b-X 12ff-X 12aa-X	.
4r	4r	.
*clefF4	*	*
=4	=4	=4
*M2/8	*M2/8	*
*^	*	*
8rC	4B-X	16r	.
.	.	[16fn [16an	.
8C	.	24fLL] 24a]	.
.	.	24c#X	.
.	.	24dJJ	.
*v	*v	*	*
!!LO:LB:g=original
=5	=5	=5
*M2/16	*M2/16	*
*^	*^	*
8AA-X	8G-X	8cn	16f 16b--	.
.	.	.	16f-X 16a-X	.
*v	*v	*	*	*
*	*v	*v	*
=6	=6	=6
*M3/4	*M3/4	*
*^	*^	*
2.FFn	[4E-X	4An	8e-XL 8gn	.
.	.	.	8d 8f#X	.
.	12E-L]	2B-X	8e- 8g	.
.	12D	.	.	.
.	.	.	8en 8g#X	.
.	12D-XJ	.	.	.
.	4C	.	8fn 8a	.
.	.	.	8eJ 8a-X	.
*v	*v	*	*	*
*	*v	*v	*
=7	=7	=7
*M2/4	*M2/4	*
*^	*^	*
2FF	2E-X	2An	8e-XL 8gn	.
.	.	.	8dJ 8g-X	.
.	.	.	12d-XL 12f	.
.	.	.	12c 12en	.
.	.	.	12c-XJ 12e-X	.
*v	*v	*	*	*
*	*v	*v	*
=8	=8	=8
*M5/16	*M5/16	*
*	*^	*
16DDn 16C	16Gn	16cn 16en	.
[16D [16c	16ryy	16gn 16b	.
8.D] 8.c]	8.ryy	16d#XLL	<
.	.	16e	(
.	.	16gJJ 16b	(
*	*v	*v	*
!!LO:LB:g=original
=9	=9	=9
*M3/4	*M3/4	*
12cL	2g-X 2b-X 2ddn	[
12G-X	.	.
12AA-XJ	.	.
12G-L	.	.
12c	.	.
*clefG2	*	*
12b-XJ	.	.
4gg-X	6ddd	.
.	12bb-X	.
=10	=10	=10
*M2/4	*M2/4	*
6b-X	6ee 6aa-X 6ddd	.
12e	12cc 12gg-X 12bb-X	.
4r	4r	.
*clefF4	*	*
=11	=11	=11
*M2/8	*M2/8	*
16r	16r	.
[16D [16c	16gn 16bn	.
8D] 8c]	16d#XLL	.
.	16eJJ	.
=12	=12	=12
*M2/16	*M2/16	*
*^	*^	*
8BB-X	8A-X	8dn	16g 16cc-X	.
.	.	.	16g-X 16b-X	.
*v	*v	*	*	*
*	*v	*v	*
=13	=13	=13
*M3/4	*M3/4	*
*^	*^	*
2.GGn	[4F	4Bn	8fL 8an	.
.	.	.	8e 8g#X	.
.	12FL]	[2c	8f 8a	.
.	12E	.	.	.
.	.	.	8f#X 8a#X	.
.	12E-XJ	.	.	.
.	12DL	.	8gn 8b	.
.	12E-	.	.	.
.	.	.	8f#J 8b-X	.
.	12EnJ	.	.	.
*v	*v	*	*	*
*	*v	*v	*
!!LO:LB:g=original
=14	=14	=14
*M2/4	*M2/4	*
*^	*^	*
2GG	2F	4c]	8fnL 8a	.
.	.	.	8eJ 8a-X	.
.	.	4Bn	12e-XL 12g	.
.	.	.	12d 12f#X	.
.	.	.	12d-XJ 12fn	.
*v	*v	*	*	*
*	*v	*v	*
=15	=15	=15
*M5/16	*M5/16	*
[8GGG [8GG	16F 16c 16en	pp
.	16eeLL	.
8.GGG] 8.GG]	16g#X	.
.	16.a	.
.	32eeJJk	.
=16	=16	=16
*M2/4	*M2/4	*
*^	*^	*
12BL	2B 2e-X	8ra	2ggn	.
12F	.	.	.	.
.	.	8a 8ee-X	.	.
12GGJ	.	.	.	.
*clefG2	*	*	*	*
8ee-XL	.	8aaL 8ddd-X 8ggg	.	.
8aJ	.	8ffJ 8bb 8eee-X	.	.
*	*	*v	*v	*
*clefF4	*	*	*
*v	*v	*	*
=17	=17	=17
*M5/16	*M5/16	*
*^	*	*
48%5B-XL	[8dn	16r	.
.	.	16ddn	.
48%5E-X	.	.	.
.	8.d]	16f#XLL	.
.	.	16.g	.
48%5GGJ	.	.	.
.	.	32ddJJk	.
*v	*v	*	*
!!LO:LB:g=original
=18	=18	=18
*M2/4	*M2/4	*
*^	*^	*
12AL	2A 2d-X	8ra	2ffn	.
12E-X	.	.	.	.
.	.	8g 8dd-X	.	.
12GGJ	.	.	.	.
*clefG2	*	*	*	*
8dd-XL	.	8ggL 8ccc-X 8fff	.	.
8gJ	.	8ee-XJ 8aa 8ddd-X	.	.
*	*	*v	*v	*
*clefF4	*	*	*
=19	=19	=19	=19
*v	*v	*	*
*M5/16	*M5/16	*
*^	*	*
48%5A-XL	[8cn	16r	.
.	.	16ccn	.
48%5D-X	.	.	.
.	8.c]	16enLL	.
.	.	16.f	.
48%5GGJ	.	.	.
.	.	32ccJJk	.
*v	*v	*	*
=20	=20	=20
*M3/4	*M3/4	*
*^	*^	*
12GL	4B	8rf	8ee-XL	.
12F	.	.	.	.
.	.	8f	8bJ	.
12GGJ	.	.	.	.
12G-XL	4B-X	16rf	4cc	.
.	.	16g-XLL	.	.
12AA-X	.	.	.	.
.	.	16f	.	.
12EE-XJ	.	.	.	.
.	.	16f-XJJ	.	.
12FL	4An	8e-XL	4bn	.
12GGn	.	.	.	.
.	.	16dnL	.	.
12GGGJ	.	.	.	.
.	.	16d-XJJ	.	.
*v	*v	*	*	*
*	*v	*v	*
!!LO:LB:g=original
=21	=21	=21
*M15/16	*M15/16	*
*^	*^	*
48%5cL	[8en	8rc	16rff	.
.	.	.	16een	.
48%5F	.	.	.	.
.	8.e]	8.rc	16g#XLL	.
.	.	.	16.a	.
48%5GGJ	.	.	.	.
.	.	.	32eeJJk	.
48%5BnL	[8e-X	16rc	16ggnLL	.
.	.	[16a	[16ee-XJJ	>
48%5F	.	.	.	)
.	8.e-]	16aLL]	8.ee-]	)
.	.	16a-X	.	)
48%5GGJ	.	.	.	)
.	.	16gnJJ	.	]
48%5B-XL	[8d	8rc	16rff	.
.	.	.	16dd	.
48%5E-X	.	.	.	.
.	8.d]	8.rc	16f#XLL	.
.	.	.	16.g#X	.
48%5GGJ	.	.	.	.
.	.	.	32ddJJk	.
=22	=22	=22	=22	=22
48%5AnL	[8d-X	16rc	16ffnLL	.
.	.	[16g	[16dd-XJJ	.
48%5E-X	.	.	.	.
.	8.d-]	16gLL]	8.dd-]	.
.	.	16g-X	.	.
48%5GGnJ	.	.	.	.
.	.	16fJJ	.	.
48%5A-XL	[8c	8re	16rff	.
.	.	.	16cc	.
48%5D-X	.	.	.	.
.	8.c]	8.rc	16eLL	.
.	.	.	16.f	.
48%5GGJ	.	.	.	.
.	.	.	32ccJJk	.
48%5GL	[8Bn	16re	16ee-XLL	.
.	.	[16f	[16bJJ	.
48%5F	.	.	.	.
.	8.B]	16fLL]	8.b]	.
.	.	16f-X	.	.
48%5GGJ	.	.	.	.
.	.	16e-XJJ	.	.
!!LO:LB:g=original
=23	=23	=23	=23	=23
48%5G-XL	[8B-X	16rc	16ccLL	.
.	.	[16dn	[16g-XJJ	.
48%5AA-X	.	.	.	.
.	8.B-]	16dLL]	8.g-]	.
.	.	16d-X	.	.
48%5EE-XJ	.	.	.	.
.	.	16cJJ	.	.
48%5FL	[8An	16rc	16bnLL	.
.	.	[16d-	[16fnJJ	.
48%5GGn	.	.	.	.
.	8.A]	16d-LL]	8.f]	.
.	.	16c	.	.
48%5GGGJ	.	.	.	.
.	.	16BnJJ	.	.
48%5G-XL	[8B-X	16rc	16ccLL	.
.	.	[16dn	[16g-JJ	.
48%5AA-X	.	.	.	.
.	8.B-]	16dLL]	8.g-]	.
.	.	16d-X	.	.
48%5EE-J	.	.	.	.
.	.	16cJJ	.	.
*v	*v	*	*	*
*	*v	*v	*
=24	=24	=24
*M10/16	*M10/16	*
*^	*^	*
48%5FL	[8An	16rc	16bnLL	.
.	.	[16d-X	[16fJJ	.
48%5GGn	.	.	.	.
.	8.A]	16d-LL]	8.f]	.
.	.	16c	.	.
48%5GGGJ	.	.	.	.
.	.	16d-JJ	.	.
48%5E-XL 48%5d-X	8ryy	[8f	[8a	.
48%5Dn 48%5c	.	.	.	.
.	8.ryy	8.f_	8.a_	.
48%5D-XJ 48%5c-X	.	.	.	.
*v	*v	*	*	*
*	*v	*v	*
!!LO:LB:g=original
=25	=25	=25
*M3/8	*M3/8	*
*^	*^	*
4.Cn	4.B-X	16f]	16aLL]	pp
.	.	16ryy	[16c#XJJ	.
.	.	8ryy	8c#_	.
.	.	8ryy	24c#LL]	<
.	.	.	24d	(
.	.	.	24fJJ 24a	(
*v	*v	*	*	*
*	*v	*v	*
=26	=26	=26
*M3/4	*M3/4	*
12B-XL	2f-X 2a-X 2ccn	[
12F-X	.	.
[12GG-XJ	.	.
16GG-LL]	.	.
16F-	.	.
16B-	.	.
*clefG2	*	*
16a-XJJ	.	.
4ff-X	6ccc	.
.	[12aa-X	.
*clefF4	*	*
=27	=27	=27
*M2/4	*M2/4	*
*^	*	*
12rC	12ryy	12aa-]	.
6GG-X 6F-X 6B-X	12a-XL	12ddL 12gg-X 12ccc	.
.	12dJ	12b-XJ 12ff-X 12aa-X	.
4rC	4ryy	4r	.
*v	*v	*	*
=28	=28	=28
*M2/8	*M2/8	*
*^	*	*
8rC	4B-X	16r	.
.	.	[16fn [16an	.
8C	.	24fLL] 24a]	.
.	.	24c#X	.
.	.	24dJJ	.
*v	*v	*	*
=29	=29	=29
*M2/16	*M2/16	*
*^	*^	*
8AA-X	8G-X	8cn	16f 16b--	.
.	.	.	16f-X 16a-X	.
*v	*v	*	*	*
*	*v	*v	*
!!LO:LB:g=original
=30	=30	=30
*M3/4	*M3/4	*
*^	*^	*
2.FFn	[4E-X	4An	8e-XL 8gn	.
.	.	.	8d 8f#X	.
.	12E-L]	2B-X	8e- 8g	.
.	12D	.	.	.
.	.	.	8en 8g#X	.
.	12D-XJ	.	.	.
.	4C	.	8fn 8a	.
.	.	.	8eJ 8a-X	.
*v	*v	*	*	*
*	*v	*v	*
=31	=31	=31
*M2/4	*M2/4	*
*	*^	*
4FF 4E-X	4An	8e-XL 8gn	.
.	.	8d 8f#X	.
4DD-X 4D-X	4c-X	8e- 8g	.
.	.	8enJ 8g#X	.
*	*v	*v	*
=32	=32	=32
*M5/16	*M5/16	*
16GGG 16GG 16F	16cn 16fn 16a	mf
[16G [16f	16cc 16ee	.
8.G] 8.f]	16g#XLL	<
.	16.a	(
.	32ccJJk 32ee	[
=33	=33	=33
*M3/4	*M3/4	*
12fL	2cc-X 2ee-X 2ggn	f
12c-X	.	.
[12D-XJ	.	.
16D-LL]	.	.
16c-	.	.
16f	.	.
*clefG2	*	*
16ee-XJJ	.	.
4ccc-X	6ggg	.
.	12eee-X	.
=34	=34	=34
*M5/4	*M5/4	*
*^	*	*
4D-X 4c-X 4f	8ee-XL	8aaL 8ddd-X 8ggg	.
.	8aJ	8ffJ 8ccc-X 8eee-X	.
4r	4ryy	4r	.
4r	4ryy	4r	.
2r	2ryy	2r	.
*v	*v	*	*
*clefF4	*	*
!!LO:LB:g=original
=35	=35	=35
*M3/16	*M3/16	*
16r	16r	.
[8G [8f	16ccn 16een	pp
.	16g#X	.
=36	=36	=36
*	*^	*
16G] 16f]	16re	16a	.
8E-X 8d-X	8gn	16cc 16ff-X	.
.	.	16cc-X 16ee-X	.
*	*v	*v	*
=37	=37	=37
*M3/4	*M3/4	*
*^	*^	*
2.Cn	[4B-X	4en	8b-XL 8ddn	.
.	.	.	8a 8cc#X	.
.	12B-L]	2f	8b- 8dd	.
.	12A	.	.	.
.	.	.	8bn 8dd#X	.
.	12A-XJ	.	.	.
.	4G	.	8ccn 8ee	.
.	.	.	8bJ 8ee-X	.
*v	*v	*	*	*
*	*v	*v	*
=38	=38	=38
*M2/4	*M2/4	*
*^	*^	*
2C	2B-X	2en	8b-XL 8dd	.
.	.	.	8aJ 8dd-X	.
.	.	.	12a-XL 12cc	.
.	.	.	12g 12bn	.
.	.	.	12g-XJ 12b-X	.
*v	*v	*	*	*
*	*v	*v	*
=39	=39	=39
*M5/16	*M5/16	*
[8CC [8C	16B-X 16f 16an	.
.	16aa	.
8.CC] 8.C]	16cc#XLL	.
.	16.dd	.
.	32aaJJk	.
!!LO:LB:g=original
=40	=40	=40
*M2/4	*M2/4	*
*^	*^	*
12eL	2e 2a-X	8ra	2cccn	.
12B-X	.	.	.	.
.	.	8dd 8aa-X	.	.
12CJ	.	.	.	.
*clefG2	*	*	*	*
8aa-XL	.	8dddL 8ggg-X 8cccc	.	.
8ddJ	.	8bb-XJ 8eee 8aaa-X	.	.
*	*	*v	*v	*
*clefF4	*	*	*
*v	*v	*	*
=41	=41	=41
*M5/16	*M5/16	*
*^	*	*
48%5e-XL	[8gn	16r	.
.	.	16ggn	.
48%5A-X	.	.	.
.	8.g]	16bnLL	.
.	.	16.cc	.
48%5CJ	.	.	.
.	.	32ggJJk	.
*v	*v	*	*
=42	=42	=42
*M2/4	*M2/4	*
*^	*^	*
12dL	2d 2g-X	8ra	2bb-X	.
12A-X	.	.	.	.
.	.	8cc 8gg-X	.	.
12CJ	.	.	.	.
*clefG2	*	*	*	*
*	*	*8va	*	*
8gg-XL	.	8cccL 8fff-X 8bbb-X	.	.
8ccJ	.	8aa-XJ 8ddd 8ggg-X	.	.
*	*	*X8va	*	*
*	*	*v	*v	*
*clefF4	*	*	*
=43	=43	=43	=43
*v	*v	*	*
*M5/16	*M5/16	*
*^	*	*
48%5d-XL	[8fn	16r	.
.	.	16ffn	.
48%5G-X	.	.	.
.	8.f]	16anLL	.
.	.	16.b-X	.
48%5CJ	.	.	.
.	.	32ffJJk	.
*v	*v	*	*
!!LO:LB:g=original
=44	=44	=44
*M3/4	*M3/4	*
*^	*^	*
12cL	4e	8ra	8aa-XL	.
12B-X	.	.	.	.
.	.	8b-X	8eeJ	.
12CJ	.	.	.	.
12c-XL	4e-X	16ra	4ff	.
.	.	16cc-XLL	.	.
12D-X	.	.	.	.
.	.	16b-	.	.
12AA-XJ	.	.	.	.
.	.	16b--JJ	.	.
12B-L	4dn	8a-XL	4een	.
12Cn	.	.	.	.
.	.	16gL	.	.
12CCJ	.	.	.	.
.	.	16g-XJJ	.	.
*v	*v	*	*	*
*	*v	*v	*
=45	=45	=45
*M15/16	*M15/16	*
*^	*^	*
48%5fL	[8an	8rf	16rff	.
.	.	.	16aan	.
48%5B-X	.	.	.	.
.	8.a]	8.rf	16cc#XLL	.
.	.	.	16.dd	.
48%5CJ	.	.	.	.
.	.	.	32aaJJk	.
48%5enL	[8a-X	16rf	16cccnLL	.
.	.	[16dd	[16aa-XJJ	>
48%5B-	.	.	.	)
.	8.a-]	16ddLL]	8.aa-]	)
.	.	16dd-X	.	)
48%5CJ	.	.	.	)
.	.	16ccnJJ	.	]
48%5e-XL	[8gn	8rf	16rff	.
.	.	.	16ggn	.
48%5A-X	.	.	.	.
.	8.g]	8.rf	16bnLL	.
.	.	.	16.cc	.
48%5CJ	.	.	.	.
.	.	.	32ggJJk	.
=46	=46	=46	=46	=46
48%5dnL	[8g-X	16rf	16bb-XLL	.
.	.	[16cc	[16gg-XJJ	>
48%5A-X	.	.	.	)
.	8.g-]	16ccLL]	8.gg-]	)
.	.	16cc-X	.	)
48%5CnJ	.	.	.	)
.	.	16b-XJJ	.	]
48%5d-XL	[8f	8rf	16rff	.
.	.	.	16ff	.
48%5G-X	.	.	.	.
.	8.f]	8.rc	16aLL	.
.	.	.	16.b-	.
48%5CJ	.	.	.	.
.	.	.	32ffJJk	.
48%5cnL	[8en	16rf	16aa-XLL	.
.	.	[16b-	[16eeJJ	>
48%5B-X	.	.	.	)
.	8.e]	16b-LL]	8.ee]	)
.	.	16an	.	)
48%5CJ	.	.	.	)
.	.	16a-XJJ	.	]
!!LO:LB:g=original
=47	=47	=47	=47	=47
48%5c-XL	[8e-X	16re	16ffLL	.
.	.	[16gn	[16cc-XJJ	>
48%5D-X	.	.	.	)
.	8.e-]	16gLL]	8.cc-]	)
.	.	16g-X	.	)
48%5AA-XJ	.	.	.	)
.	.	16fJJ	.	]
48%5B-XL	[8dn	16re	16eenLL	.
.	.	[16g-	[16b-XJJ	>
48%5Cn	.	.	.	)
.	8.d]	16g-LL]	8.b-]	)
.	.	16f	.	)
48%5CCJ	.	.	.	)
.	.	16enJJ	.	]
48%5c-XL	[8e-X	16re	16ffLL	.
.	.	[16gn	[16cc-JJ	>
48%5D-X	.	.	.	)
.	8.e-]	16gLL]	8.cc-]	)
.	.	16g-X	.	)
48%5AA-J	.	.	.	)
.	.	16fJJ	.	]
*v	*v	*	*	*
*	*v	*v	*
=48	=48	=48
*M3/4	*M3/4	*
*^	*^	*
12B-XL	4dn	20rf	20eenLL	.
.	.	[20g-XLL	[20b-XJJ	.
12Cn	.	.	.	.
.	.	20g-]	10.b-]	.
.	.	20f	.	.
12CCJ	.	.	.	.
.	.	20enJJ	.	.
2AA-X 2G-X	4ryy	2c 2e	8rcc	.
.	.	.	[8b-	.
.	4ryy	.	12b-L]	.
.	.	.	12b--	.
.	.	.	12a-XJ	.
*v	*v	*	*	*
*	*v	*v	*
=49	=49	=49
2.CC 2.GGn 2.E	2.Gn 2.c 2.e 2.gn	.
==	==	==
*-	*-	*-
!!!filter: flipper -a
!!!system-decoration: {(*)}
!!!ENC: Bryan Jacob Bell
!!!END: November 2021 to April 2022
!!!PED: Günter Philipp
!!!PTL: Ausgewählte Klavierwerke (Edition Peters)
